app/src/content/assets/svg/social.twitter.svg

﻿<?xml version="1.0" encoding="utf-8"?>
<!DOCTYPE svg PUBLIC "-//W3C//DTD SVG 1.1//EN" "http://www.w3.org/Graphics/SVG/1.1/DTD/svg11.dtd">
<svg xmlns="http://www.w3.org/2000/svg" xmlns:xlink="http://www.w3.org/1999/xlink" version="1.1" baseProfile="full" width="76" height="76" viewBox="0 0 76.00 76.00" enable-background="new 0 0 76.00 76.00" xml:space="preserve">
	<path fill-opacity="1" stroke-width="0.2" stroke-linejoin="round" d="M 59.7481,27.0756C 58.2644,27.7337 56.6696,28.1784 54.9961,28.3784C 56.704,27.3544 58.0162,25.7329 58.634,23.8008C 57.0352,24.749 55.2645,25.4376 53.3797,25.8086C 51.8705,24.2005 49.7202,23.1958 47.3403,23.1958C 42.771,23.1958 39.0661,26.9003 39.0661,31.4697C 39.0661,32.1181 39.1393,32.7497 39.2804,33.3553C 32.4039,33.0102 26.3071,29.7162 22.2263,24.7102C 21.514,25.9322 21.106,27.3535 21.106,28.8699C 21.106,31.7405 22.5667,34.2731 24.7869,35.7569C 23.4307,35.7138 22.1547,35.3416 21.0392,34.7219C 21.0385,34.7565 21.0385,34.791 21.0385,34.826C 21.0385,38.8348 23.8906,42.1789 27.6756,42.9392C 26.9814,43.1282 26.2504,43.2294 25.4958,43.2294C 24.9626,43.2294 24.4443,43.1775 23.939,43.081C 24.992,46.368 28.0476,48.7603 31.6683,48.8269C 28.8365,51.0462 25.2689,52.369 21.3923,52.369C 20.7245,52.369 20.0659,52.3297 19.4186,52.2533C 23.0802,54.6008 27.4295,55.9708 32.102,55.9708C 47.321,55.9708 55.6436,43.363 55.6436,32.4291C 55.6436,32.0704 55.6353,31.7136 55.6194,31.3586C 57.2362,30.192 58.6389,28.7348 59.7481,27.0756 Z "/>
</svg>

<svg xmlns="http://www.w3.org/2000/svg" baseProfile="full" width="76" height="76" viewBox="0 0 76.00 76.00"><path d="M59.748 27.076a16.54 16.54 0 0 1-4.752 1.302 8.3 8.3 0 0 0 3.638-4.577 16.565 16.565 0 0 1-5.254 2.008 8.263 8.263 0 0 0-6.04-2.613 8.274 8.274 0 0 0-8.274 8.274c0 .648.073 1.28.214 1.885-6.876-.345-12.973-3.639-17.054-8.645a8.234 8.234 0 0 0-1.12 4.16 8.27 8.27 0 0 0 3.68 6.887 8.243 8.243 0 0 1-3.747-1.035v.104a8.28 8.28 0 0 0 6.637 8.113 8.288 8.288 0 0 1-3.737.142 8.282 8.282 0 0 0 7.73 5.746 16.6 16.6 0 0 1-10.277 3.542c-.668 0-1.326-.04-1.973-.116a23.42 23.42 0 0 0 12.683 3.718c15.219 0 23.542-12.608 23.542-23.542 0-.359-.009-.715-.025-1.07a16.81 16.81 0 0 0 4.13-4.283z"/></svg>
